tools/download-figma-icons/icons/outlined-medium/semi-detached-house.svg

<svg width="25" height="24" viewBox="0 0 25 24" fill="none" xmlns="http://www.w3.org/2000/svg">
<path d="M23.937 10.185L21.1245 4.185C21.0045 3.9225 20.7345 3.75 20.442 3.75H8.25453V1.5C8.25453 1.0875 7.91703 0.75 7.50453 0.75H5.25453C4.84203 0.75 4.50453 1.0875 4.50453 1.5V3.75H3.56703C3.27453 3.75 3.01203 3.915 2.88453 4.185L0.0720313 10.185C-0.0404687 10.4175 -0.0179687 10.6875 0.117031 10.905C0.252031 11.1225 0.492031 11.25 0.747031 11.25H1.49703V22.5C1.49703 22.9125 1.83453 23.25 2.24703 23.25H21.747C22.1595 23.25 22.497 22.9125 22.497 22.5V11.25H23.247C23.502 11.25 23.742 11.1225 23.877 10.905C24.012 10.6875 24.0345 10.4175 23.922 10.185H23.937ZM22.077 9.75H12.7545V5.25H19.962L22.0695 9.75H22.077ZM6.00453 2.25H6.75453V3.75H6.00453V2.25ZM4.04703 5.25H11.2545V9.75H1.93203L4.03953 5.25H4.04703ZM3.00453 11.25H11.2545V21.75H9.75453V16.5C9.75453 16.0875 9.41703 15.75 9.00453 15.75H5.25453C4.84203 15.75 4.50453 16.0875 4.50453 16.5V21.75H3.00453V11.25ZM6.00453 21.75V17.25H8.25453V21.75H6.00453ZM15.7545 21.75V17.25H18.0045V21.75H15.7545ZM21.0045 21.75H19.5045V16.5C19.5045 16.0875 19.167 15.75 18.7545 15.75H15.0045C14.592 15.75 14.2545 16.0875 14.2545 16.5V21.75H12.7545V11.25H21.0045V21.75Z" fill="black"/>
<path d="M6.37952 14.25H7.87952C8.29202 14.25 8.62952 13.9125 8.62952 13.5C8.62952 13.0875 8.29202 12.75 7.87952 12.75H6.37952C5.96702 12.75 5.62952 13.0875 5.62952 13.5C5.62952 13.9125 5.96702 14.25 6.37952 14.25Z" fill="black"/>
<path d="M16.1295 14.25H17.6295C18.042 14.25 18.3795 13.9125 18.3795 13.5C18.3795 13.0875 18.042 12.75 17.6295 12.75H16.1295C15.717 12.75 15.3795 13.0875 15.3795 13.5C15.3795 13.9125 15.717 14.25 16.1295 14.25Z" fill="black"/>
</svg>

<svg width="25" height="24" viewBox="0 0 25 24" fill="none" xmlns="http://www.w3.org/2000/svg"><path d="m23.937 10.185-2.813-6a.754.754 0 0 0-.682-.435H8.255V1.5a.752.752 0 0 0-.75-.75h-2.25a.752.752 0 0 0-.75.75v2.25h-.938a.75.75 0 0 0-.682.435l-2.813 6a.746.746 0 0 0 .675 1.065h.75V22.5c0 .413.338.75.75.75h19.5c.413 0 .75-.337.75-.75V11.25h.75a.746.746 0 0 0 .675-1.065h.015Zm-1.86-.435h-9.323v-4.5h7.208l2.108 4.5h.007ZM6.005 2.25h.75v1.5h-.75v-1.5Zm-1.958 3h7.208v4.5H1.931l2.108-4.5h.007Zm-1.042 6h8.25v10.5h-1.5V16.5a.752.752 0 0 0-.75-.75h-3.75a.752.752 0 0 0-.75.75v5.25h-1.5v-10.5Zm3 10.5v-4.5h2.25v4.5h-2.25Zm9.75 0v-4.5h2.25v4.5h-2.25Zm5.25 0h-1.5V16.5a.752.752 0 0 0-.75-.75h-3.75a.752.752 0 0 0-.75.75v5.25h-1.5v-10.5h8.25v10.5Z" fill="currentColor"/><path d="M6.38 14.25h1.5c.412 0 .75-.338.75-.75a.752.752 0 0 0-.75-.75h-1.5a.752.752 0 0 0-.75.75c0 .412.337.75.75.75Zm9.75 0h1.5c.412 0 .75-.338.75-.75a.752.752 0 0 0-.75-.75h-1.5a.752.752 0 0 0-.75.75c0 .412.337.75.75.75Z" fill="currentColor"/></svg>
